X:1
T:Title
%%score 1 { 2 | 3 }
L:1/8
Q:1/4=97
M:4/4
K:E
V:1 treble nm="Grand Piano, Soprano"
V:2 bass nm="Choir Pad, Who Shall Be Able to Stand?"
V:3 bass 
V:1
 E>F [EG][EG] [EG]>[DF] [EG]2 | [EG]>[FA] [GB][GB] [GB]>[Ac] [GB]2 | %2
w: By~Knowles~Shaw * * * * * *||
 [GB]>[GB] [FB][DF] [DF][DF] [DF]>[EG] | [FA]>[EG] [DF]6 | E>[DF] [EG][EG] [EG]>[DF] [EG]2 | %5
w: |||
 [EG]>[EA] [EB][EB] [Ec]>[Ad] [Ge]2 | [Ed][Ed] [EB]2 [EG]>[FA] [GB]>[EG] | [EG][DF] E6 | %8
w: |||
 z2 [EG]2 .[EG]>.[EG] .[EG].[DF] | .[EG]>.[FA] .[GB]4 z2 | z2 [Ec]2 [Ec]>[Ec] [Ec]>[EB] | %11
w: |||
 [EA]>[Ec] [EB]6 | E>F [EG][EG] [EG]>[DF] [EG]2 | [EG]>[EA] [EB][EB] [Ec]>[Ad] [Ge]2 | %14
w: |||
 [Ec]2 [EB]2 [EG]>[FA] [GB]>[EG] | [EG]>[DF] E6- | E2 z2 z4 |] %17
w: |||
V:2
 G,>A, B,B, B,>B, B,2 | B,>B,[K:treble] EE E>E E2 | E>E DC CC C>C | C>C[K:bass] B,4 B,A, | %4
 B,>B, B,B, B,>B, B,2 | B,>B, B,B, A,>B, B,2 | A,A, G,2 B,>B, E>B, | B,A, G,6 | z2 B,2 B,>B, B,B, | %9
 B,>B, B,B, B,B, B,2 | z2 A,2 A,>A, A,>G, | A,>A, G,G, G,G, .G,2 | G,>A, B,B, B,>B, B,2 | %13
 B,>B, B,B, A,>B, B,2 | A,2 G,2 B,>B, B,>B, | B,>A, G,6- | G,2 z2 z4 |] %17
V:3
 E,>E, E,E, E,>B,, E,2 | E,>E, E,E, E,>E, E,2 | E,>E, .B,2 B,,B,, B,,>B,, | B,,>B,, B,,6 | %4
 G,>F, E,E, E,>B,, E,2 | E,>F, G,G, z z/ F,/ E,2 | A,,C, E,2 E,>E, E,>E, | B,,B,, E,6 | %8
 z2 E,2 E,>E, E,E, | E,>E, E,E, E,E, E,2 | z2 A,,2 A,,>A,, A,,>B,, | C,>A,, E,E, E,E, .E,2 | %12
 E,>E, E,E, E,>B,, E,2 | E,>F, G,G, z z/ F,/ E,2- | E,2 E,2 E,>E, E,>E, | B,,>B,, E,6- | %16
 E,2 z2 z4 |] %17

